static/fa/svgs/solid/arrows-split-up-and-left.svg

<svg xmlns="http://www.w3.org/2000/svg" viewBox="0 0 512 512"><!--! Font Awesome Free 6.1.2 by @fontawesome - https://fontawesome.com License - https://fontawesome.com/license/free (Icons: CC BY 4.0, Fonts: SIL OFL 1.1, Code: MIT License) Copyright 2022 Fonticons, Inc. --><path d="M246.6 150.6C234.1 163.1 213.9 163.1 201.4 150.6C188.9 138.1 188.9 117.9 201.4 105.4L297.4 9.372C309.9-3.124 330.1-3.124 342.6 9.372L438.6 105.4C451.1 117.9 451.1 138.1 438.6 150.6C426.1 163.1 405.9 163.1 393.4 150.6L352 109.3V384C352 419.3 380.7 448 416 448H480C497.7 448 512 462.3 512 480C512 497.7 497.7 512 480 512H416C345.3 512 288 454.7 288 384C288 348.7 259.3 320 224 320H109.3L150.6 361.4C163.1 373.9 163.1 394.1 150.6 406.6C138.1 419.1 117.9 419.1 105.4 406.6L9.38 310.6L9.305 310.6C3.575 304.8 .0259 296.9 .0003 288.1L2.428 275.8C3.99 271.1 6.305 268.4 9.372 265.4L105.4 169.4C117.9 156.9 138.1 156.9 150.6 169.4C163.1 181.9 163.1 202.1 150.6 214.6L109.3 255.1H224C247.3 255.1 269.2 262.2 288 273.1V109.3L246.6 150.6zM0 287.9C.0125 283.6 .8749 279.5 2.428 275.8C.8214 279.6 .0122 283.8 0 287.9zM0 288.1V287.1V287.9V288.1z"/></svg>

<svg xmlns="http://www.w3.org/2000/svg" viewBox="0 0 512 512"><!--! Font Awesome Free 6.5.2 by @fontawesome - https://fontawesome.com License - https://fontawesome.com/license/free (Icons: CC BY 4.0, Fonts: SIL OFL 1.1, Code: MIT License) Copyright 2024 Fonticons, Inc. --><path d="M246.6 150.6c-12.5 12.5-32.8 12.5-45.3 0s-12.5-32.8 0-45.3l96-96c12.5-12.5 32.8-12.5 45.3 0l96 96c12.5 12.5 12.5 32.8 0 45.3s-32.8 12.5-45.3 0L352 109.3V384c0 35.3 28.7 64 64 64h64c17.7 0 32 14.3 32 32s-14.3 32-32 32H416c-70.7 0-128-57.3-128-128c0-35.3-28.7-64-64-64H109.3l41.4 41.4c12.5 12.5 12.5 32.8 0 45.3s-32.8 12.5-45.3 0l-96-96c-12.5-12.5-12.5-32.8 0-45.3l96-96c12.5-12.5 32.8-12.5 45.3 0s12.5 32.8 0 45.3L109.3 256H224c23.3 0 45.2 6.2 64 17.1V109.3l-41.4 41.4z"/></svg>
